!!!!SEGMENT: pl-wtm--r-1047_kurpinski-karol-kazimierz--taniec-polski.krn
!!!cenid: 18xx:2170
!!!COM: Kurpiński, Karol Kazimierz
!!!COM-rism: pe30018952
!!!CDT: 1785/03/06-1857/09/18
!!!CNT: Polish
!!!OTL: Taniec polski
!!!PDT:
!!!AGN:
!!!SMS-siglum: PL-Wtm
!!!SMS-shelfmark: R 1047
!!!NIFC-rismID: 1001088031
!!!URL-scan: http://repozytorium.nifc.pl/skany/pl-wtm-nut--r1047
!!!ONB-nifc:
!!!SMS-variant:
!!!SMS-altvar:
**kern	**text	**dynam
*I"Soprano 2do	*	*
*I'S	*	*
*clefC1	*	*
*k[f#c#]	*	*
*M3/4	*	*
*>[A,B,B,C,C,B,B,C,C,D,D,E,E,A,B,B,C,C,B,B,C,C]	*	*
=1	=1	=1
*>A	*>A	*>A
!LO:TX:a:i:t=Taniec Polski wykonany na balu danym dla N&colon; Pana przez Obiedwie Izby\n w Sali Teatru Nar&colon; d&colon; 9. Czerwca 1825.	!	!
!LO:TX:t=P:problem:all\right, middle, left:global	!	!
!LO:TX:t=P:problem:znaki przykluczowe - f#, cc#	!	!
!LO:TX:a:t=2	!	!
!LO:N:vis=0	!	!
1.r	.	.
=2	=2	=2
.	.	.
=3	=3	=3
!LO:TX:a:t=P:problem:w całym źródle dynamika zapisana jest na pięciolinii bezpośrednio przed nutą	!	!
!	!	!LO:DY:a:rj
8.dd\	Kró-	f
16dd\	-lu	.
4dd\	nasz	.
4dd\	wspa-	.
=4	=4	=4
*2\right	*	*
2.dd\	-nia-	.
=5	=5	=5
2cc#\	-ły	.
4r	.	.
=6	=6	=6
!LO:TX:a:t=I	!	!
2.r	.	.
=7	=7	=7
8.cc#\	wzo-	.
16cc#\	-rze	.
4cc#\	pra-	.
4cc#\	-wey	.
!!LO:LB:g=original
=8	=8	=8
2.cc#\	Chwa-	.
=9	=9	=9
2cc#\	-ły	.
4r	.	.
=10	=10	=10
!LO:TX:a:t=I	!	!
2.r	.	.
=11	=11	=11
8.dd\	Chwa-	.
16dd\	-ła	.
4dd\	To-	.
4dd\	-bie	.
=12	=12	=12
2dd\	Chwa-	.
4dd\	-ła	.
=13	=13	=13
!	!	!LO:DY:a:rj
[>2.cc#\	Chwa-	ff
=14	=14	=14
2.cc#\]	.	.
=15	=15	=15
2a\	-ła	.
4r	.	.
!!LO:LB:g=original
=16	=16	=16
!LO:TX:t=P:problem:znak na kresce taktowej	!	!
!LO:TX:a:t=I	!	!
2.r	.	.
=17||	=17||	=17||
*>B	*>B	*>B
!LO:TX:a:t=8.	!	!
!LO:N:vis=00	!	!
0.r	.	.
=18	=18	=18
.	.	.
=19	=19	=19
.	.	.
=20	=20	=20
.	.	.
=21	=21	=21
!LO:N:vis=00	!	!
0.r	.	.
=22	=22	=22
.	.	.
=23	=23	=23
.	.	.
=24	=24	=24
.	.	.
=25	=25	=25
8a\	Wi-	.
8cc#\	-tay	.
4.ee\	Kro-	.
8cc#\	-lu	.
=26	=26	=26
8a\	Pol-	.
8dd\	-skiey	.
4.ff#\	zie-	.
8dd\	-mi	.
=27	=27	=27
8a\	Oy-	.
8cc#\	-cze	.
4.ee\	mię-	.
8cc#\	-dzy	.
!!LO:LB:g=original
=28	=28	=28
8a\	dzieć-	.
8dd\	-mi	.
4.ff#\	twe-	.
8dd\	-mi	.
=29	=29	=29
4.b\	Tyś	.
8b\	nam	.
8ccn\	wro-	.
8b\	-cił	.
=30	=30	=30
2b\	i-	.
4a\	-mie	.
=31	=31	=31
8g\	pra-	.
8g\	-wa,	.
8.gg\	wiecz-	.
16ff#\	-na	.
16ee\LL	To-	.
16dd\JJ	.	.
16cc#X\LL	-bie	.
16b\JJ	.	.
!!LO:LB:g=original
=32	=32	=32
(>16a\LL	wdzię-	.
16dd\JJ)	.	.
(>16cc#\LL	-czność	.
16ee\JJ)	.	.
4ee\	sła-	.
8dd\	-wa	.
8r	.	.
=33:|!|:	=33:|!|:	=33:|!|:
*>C	*>C	*>C
!LO:TX:a:t=4	!	!
!LO:N:vis=00	!	!
0.r	.	.
=34	=34	=34
.	.	.
=35	=35	=35
.	.	.
=36	=36	=36
.	.	.
=37	=37	=37
8.cc#\	z męz-	.
16b\	-twa	.
8a\	i	.
8a\	wier-	.
8b\	-no-	.
8cc#\	-sci	.
*kcancel	*	*
=38	=38	=38
8.cc#\L	zna-	.
16dd\Jk	.	.
4dd\	-nym	.
4r	.	.
!!LO:LB:g=original
=39	=39	=39
8.b\	u-	.
16a\	-fay	.
8g#X\	no-	.
8g#\	-wym	.
8.dd\	Twym	.
16cc#\	pod-	.
=40	=40	=40
8.cc#\L	-da-	.
16b\Jk	.	.
4a\	-nym	.
4r	.	.
=41	=41	=41
!LO:TX:a:t=8	!	!
!LO:N:vis=00	!	!
0.r	.	.
=42	=42	=42
.	.	.
=43	=43	=43
.	.	.
=44	=44	=44
.	.	.
=45	=45	=45
!LO:N:vis=00	!	!
0.r	.	.
=46	=46	=46
.	.	.
=47	=47	=47
.	.	.
=48	=48	=48
.	.	.
=49	=49	=49
!	!	!LO:DY:a:rj
2cc#\	wznio-	f
4dd\	-są	.
=50	=50	=50
4cc#\	pie-	.
4cc#\	-nia	.
4r	.	.
!!LO:LB:g=original
=51	=51	=51
2cc#\	u-	.
4dd\	-wiel-	.
=52	=52	=52
4cc#\	-bie-	.
4cc#\	-nia	.
4r	.	.
=53	=53	=53
8dd^<\	Chwa-	.
8cc#\	-ła	.
4r	.	.
4r	.	.
=54	=54	=54
8dd^<\	Chwa-	.
8cc#\	-ła	.
4r	.	.
4r	.	.
=55	=55	=55
!	!	!LO:DY:a:rj
[>2.cc#\	Chwa-	ff
=56	=56	=56
2.cc#\]	.	.
!!LO:LB:g=original
=57	=57	=57
4cc#\	-ła	.
4r	.	.
4r	.	.
=58	=58	=58
!LO:TX:t=P:problem:znak na kresce taktowej	!	!
!LO:TX:t=P:problem:napis "od znaku" za kreską na pięciolinii	!	!
!LO:TX:b:t=P:problem:napis "Volti Trio" za kreską pod pięciolinią	!	!
!LO:TX:i:b:t=Volti Trio	!	!
!LO:TX:i:a:t=od znaku	!	!
!LO:TX:a:t=I	!	!
2.r	.	.
*kcancel	*	*
!!LO:PB:g=original
=59||	=59||	=59||
*>D	*>D	*>D
*k[f#]	*	*
*M3/4	*	*
!LO:TX:t=P:problem:kolejność znaków: f# ccn	!	!
!LO:TX:a:i:t=Trio	!	!
!LO:TX:a:t=10.	!	!
!LO:N:vis=00	!	!
0.r	.	.
=60	=60	=60
.	.	.
=61	=61	=61
.	.	.
=62	=62	=62
.	.	.
=63	=63	=63
!LO:N:vis=00	!	!
0.r	.	.
=64	=64	=64
.	.	.
=65	=65	=65
.	.	.
=66	=66	=66
.	.	.
=67	=67	=67
!LO:N:vis=0	!	!
1.r	.	.
=68	=68	=68
.	.	.
=69	=69	=69
!LO:TX:a:t=|&colon; łagodnie &colon;|	!	!
2b\	Ty	.
(>8.g\L	w nad-	.
16b\Jk)	.	.
=70	=70	=70
2b\	-gro-	.
4b\	-de	.
=71	=71	=71
(>4.a\	wiel-	.
16b\LL	.	.
16cc\JJ	.	.
8b\)	.	.
8a\	-kich	.
=72	=72	=72
8.b\L	tru-	.
16a\Jk	.	.
4g\	-dów	.
4r	.	.
!!LO:LB:g=original
=73	=73	=73
2b\	Chcesz	.
8.g\L	mi-	.
16b\Jk	.	.
=74	=74	=74
2b\	-ło-	.
4b\	-sci	.
=75	=75	=75
8.cc\	chcesz	.
16b\	mi-	.
(>8cc\L	-ło-	.
8ee\	.	.
8dd\J)	.	.
8cc\	-sci	.
=76	=76	=76
16b\LL	brat-	.
16a\JJ	.	.
16g\LL	-nich	.
16f#\JJ	.	.
4f#\	lu-	.
8g\	-dów	.
8r	.	.
!!LO:LB:g=original
=77:|!|:	=77:|!|:	=77:|!|:
*>E	*>E	*>E
4r	.	.
4r	.	.
8d/	Po-	.
8d/	-lak	.
=78	=78	=78
4.e/	wal-	.
8e/	-cząc	.
8e/	z lo-	.
8e/	-sem	.
=79	=79	=79
4f#/	sta-	.
8f#/	-le	.
8f#/	wier-	.
8f#/	-ny	.
8f#/	Oy-	.
=80	=80	=80
2g/	-czy-	.
8.g/	-znie	.
16g/	i	.
!!LO:LB:g=original
=81	=81	=81
4a\	chwa-	.
4a\	-le	.
8a\	do-	.
8a\	-wód	.
=82	=82	=82
4.b-X\	w Każ-	.
8b-\	-dey	.
8g\	da	.
8g\	po-	.
=83	=83	=83
4ee-X\	-trze-	.
4ee-\	-bie	.
8b-X\	I-	.
8b-\	-le	.
=84	=84	=84
[>2.b-X\	Ko-	.
=85	=85	=85
4.b-\]	.	.
8b-y\	-cha	.
8b-y\	Kray	.
8b-y\	i	.
!!LO:LB:g=original
=86	=86	=86
[>2.b-X\	cie-	.
=87	=87	=87
4.b-\]	.	.
8b-y\	-bie	.
8b-y\	i-	.
8b-y\	-le	.
=88	=88	=88
4.b-X\	Ko-	.
8b-\	-cha	.
8an\	Kray	.
8g\	i	.
=89	=89	=89
4dd\	cie-	.
8dd\	-bie	.
8dd\L	i-	.
8ccn\J	.	.
8b-X\	-le	.
=90	=90	=90
4a\	Ko-	.
8d/	-cha	.
8dd\L	Kray	.
8cc\J	.	.
8b-X\	i	.
!!LO:LB:g=original
=91	=91	=91
4a\	cie-	.
4d/	-bie	.
4r	.	.
=92	=92	=92
!LO:TX:a:t=4	!	!
!LO:N:vis=00	!	!
0.r	.	.
=93	=93	=93
.	.	.
=94	=94	=94
.	.	.
=95	=95	=95
.	.	.
=96	=96	=96
!LO:TX:a:t=10.	!	!
!LO:N:vis=00	!	!
0.r	.	.
=97	=97	=97
.	.	.
=98	=98	=98
.	.	.
=99	=99	=99
.	.	.
=100	=100	=100
!LO:N:vis=00	!	!
0.r	.	.
=101	=101	=101
.	.	.
=102	=102	=102
.	.	.
=103	=103	=103
.	.	.
=104	=104	=104
!LO:N:vis=0	!	!
1.r	.	.
=105	=105	=105
.	.	.
=106	=106	=106
!LO:TX:i:a:t=dolce	!	!
2b\	Wia-	.
(>8.g\L	-ra	.
16b\Jk)	.	.
=107	=107	=107
2b\	na-	.
4b\	-sza	.
=108	=108	=108
(>4.a\	ró-	.
16b\LL	.	.
16cc\JJ	.	.
8b\)	.	.
8a'>\	-wnie	.
=109	=109	=109
8.b\L	trwa-	.
16a\Jk	.	.
4g\	-ła	.
4r	.	.
!!LO:LB:g=original
=110	=110	=110
2b\	iak	.
8.g\L	ród	.
16b\Jk	.	.
=111	=111	=111
2b\	sła-	.
4b\	-wian	.
=112	=112	=112
8cc\L	iak	.
8b\J	.	.
8cc\L	ród	.
8ee\J	.	.
8dd\	sła-	.
8cc\	-wian	.
=113	=113	=113
!LO:TX:b:i:t=Polonez da Capo.	!	!
16b\LL	iak	.
16a\JJ	.	.
16g\LL	Twa	.
16f#\JJ	.	.
4f#\	chwa-	.
8g\	-ła	.
8r	.	.
=:|!	=:|!	=:|!
*-	*-	*-
!!!RDF**kern: > = above
!!!RDF**kern: < = below
!!!EED: Antoni Szymański
!!!EST: 2021-05-29
!!!ENC: Katarzyna Serwa
!!!END: 2021-05-15
